src/categories/symbolic/emoji-activities-symbolic.svg

<svg width="16" height="16" version="1.1" xmlns="http://www.w3.org/2000/svg">
 <path d="m8 0a8 8 0 0 0-8 8 8 8 0 0 0 0.042969 0.60547 8 8 0 0 0 0.0019531 0.0097656 8 8 0 0 0 0.15234 1.0508 8 8 0 0 0 6.1367 6.1367 8 8 0 0 0 1.0508 0.15234 8 8 0 0 0 0.0097656 0.001953 8 8 0 0 0 0.60547 0.042969 8 8 0 0 0 8-8 8 8 0 0 0-0.027344-0.61523 8 8 0 0 0-0.15234-1.0547 8 8 0 0 0 0-0.0058593 8 8 0 0 0-6.1445-6.1445 8 8 0 0 0-0.0058593 0 8 8 0 0 0-1.0547-0.15234 8 8 0 0 0-0.61523-0.027344zm0 1a7 7 0 0 1 0.23438 0.0058594 5.5 5.5 0 0 0-0.23438 1.4941 5.5 5.5 0 0 0 5.5 5.5 5.5 5.5 0 0 0 1.4941-0.23438 7 7 0 0 1 0.005859 0.23438 7 7 0 0 1-7 7 7 7 0 0 1-0.23047-0.017578 5.5 5.5 0 0 0 0.23047-1.4824 5.5 5.5 0 0 0-5.5-5.5 5.5 5.5 0 0 0-1.4824 0.23047 7 7 0 0 1-0.017578-0.23047 7 7 0 0 1 7-7zm1.25 0.11523a7 7 0 0 1 5.6348 5.6348 4.5 4.5 0 0 1-1.3848 0.25 4.5 4.5 0 0 1-4.5-4.5 4.5 4.5 0 0 1 0.25-1.3848zm-6.75 7.8848a4.5 4.5 0 0 1 4.5 4.5 4.5 4.5 0 0 1-0.24805 1.377 7 7 0 0 1-5.6289-5.6289 4.5 4.5 0 0 1 1.377-0.24805z" fill="#363636"/>
</svg>

<svg xmlns="http://www.w3.org/2000/svg" width="16" height="16">
    <path fill="#050505" fill-opacity=".7" d="M8 0a8 8 0 0 0-8 8 8 8 0 0 0 .043.605 8 8 0 0 0 .002.01 8 8 0 0 0 .152 1.051 8 8 0 0 0 6.137 6.137 8 8 0 0 0 1.05.152 8 8 0 0 0 .01.002A8 8 0 0 0 8 16a8 8 0 0 0 8-8 8 8 0 0 0-.027-.615 8 8 0 0 0-.153-1.055 8 8 0 0 0 0-.006A8 8 0 0 0 9.676.18a8 8 0 0 0-.006 0A8 8 0 0 0 8.615.027 8 8 0 0 0 8 0zm0 1a7 7 0 0 1 .234.006A5.5 5.5 0 0 0 8 2.5 5.5 5.5 0 0 0 13.5 8a5.5 5.5 0 0 0 1.494-.234A7 7 0 0 1 15 8a7 7 0 0 1-7 7 7 7 0 0 1-.23-.018A5.5 5.5 0 0 0 8 13.5 5.5 5.5 0 0 0 2.5 8a5.5 5.5 0 0 0-1.482.23A7 7 0 0 1 1 8a7 7 0 0 1 7-7zm1.25.115a7 7 0 0 1 5.635 5.635A4.5 4.5 0 0 1 13.5 7 4.5 4.5 0 0 1 9 2.5a4.5 4.5 0 0 1 .25-1.385zM2.5 9A4.5 4.5 0 0 1 7 13.5a4.5 4.5 0 0 1-.248 1.377 7 7 0 0 1-5.629-5.629A4.5 4.5 0 0 1 2.5 9z"/>
</svg>
